X:1
T:Joseph and the angel - Terry
T:Joseph and the Angel - Terry
T:James Gibb editions
T:#
T:#
%%score [ ( 1 2 ) ( 3 4 ) ]
L:1/8
Q:1/4=104
M:6/8
K:A
V:1 treble nm="Midi_74"
V:2 treble 
V:3 bass nm="Midi_74"
V:4 bass 
V:1
"^Joseph and the Angel""^R. R. Terry\n(1865-1938)"!mf! c | e2 c d2 B | (A2 F) E2 E | F2 A A2 G | %4
w: ~As|Jo- seph was a-|walk\- * ing He|heard an an- gel|
 A3- A2 c | (e2 c) d2 B | (A2 F E2) E | F2 A (A2 G) | A3- A2 c | B2 e B2 A | (G2 A B2) d | %11
w: sing, * This|night * shall be|born * * Our|heav- en- ly *|King. * *|||
 c2 d c2 B | e3- e2 E | F2 G A2 B | c2 e d2 c | B2 A c2 B | (A2 F E2)!p! F | A3- A2 F | A3- A2 z || %19
w: ||||||||
!mf! c | e2 c d2 B | (A2 F) E2 E | F2 A A2 G | A3- A2 c | (e2 c) d2 B | (A2 F E2) E | F2 A (A2 G) | %27
w: ~As|Jo- seph was a-|walk\- * ing He|heard an an- gel|sing, * This|night * shall be|born * * Our|heav- en- ly *|
 A3- A2 c | B2 e B2 A | (G2 A) B2 d | c2 d c2 B | e3- e2 E | F2 G (A2 B) | (c2 e) d2 c | %34
w: King. * *|||||||
 (B2 A) c2 B | (A2 F E2)!p! F | A3- A2 F | A3- A2 z ||!mf! c | e2 c d2 B | (A2 F) E2 E | %41
w: wear * * *||||~As|Jo- seph was a-|walk\- * ing He|
 F2 A A2 G | A3- A2 c | (e2 c) d2 B | (A2 F E2) E | F2 A (A2 G) | A3- A2 c | B2 e B2 A | %48
w: heard an an- gel|sing, * This|night * shall be|born * * Our|heav- en- ly *|King. * *||
 (G2 A) B2 d | c2 d c2 B | e3- e2 E | F2 G A2 B | (c2 e) d2 c | (B2 A) c2 B | (A2 F E2)!p! F | %55
w: |||||||
 A3- A2 F | A3- A2 z ||!mf! c | e2 c d2 B | (A2 F) E2 E | F2 A A2 G | A3- A2 c | (e2 c) d2 B | %63
w: ||~As|Jo- seph was a-|walk\- * ing He|heard an an- gel|sing, * This|night * shall be|
 (A2 F E2) E | F2 A (A2 G) | A3- A2!mp! c | B2 e B2 A | G2 A B2 d | c2 d c2 B | e3- e2 E | %70
w: born * * Our|heav- en- ly *|King. * *|||||
 F2 G A2 B |!mf! (c2 e) d2 c | B2 A c2 B | (A2 F E2)[Q:1/4=102]!f! F | %74
w: ||||
[Q:1/4=96] A3-[Q:1/4=89] A2[Q:1/4=85] F |[Q:1/4=84] A3- A2 |] %76
w: ||
V:2
 A | B2 A A2 E | (E2 D) E2 E | D2 E F2 E | (E2 F E2) A | (B2 A) A2 E | (E2 D E2) E | D2 E (F2 E) | %8
w: ||||||||
 (C2 D E2) E | E2 E ^D2 D | (E2 F G2) B | A2 A G2 G | (A2 G A2) E | D2 E E2 E | E2 =G F2 F | %15
w: * * * He|nei- ther shall be|born * * In|hou- sen nor in|hall, * * Nor|in the place of|Pa- ra- dise, But|
 F2 F A2 G | (E2 D E2) D | (C2 D C2) D | C3- C2 z || A | B2 A A2 E | (E2 D) E2 E | D2 E F2 E | %23
w: in an ox- 's|stall. * * No-|el * * No-|el. *|||||
 (E2 F E2) A | (B2 A) A2 E | (E2 D E2) E | D2 E (F2 E) | (C2 D E2) E | E2 E ^D2 D | (E2 F) G2 B | %30
w: ||||* * * He|nei- ther shall be|cloth\- * ed In|
 A2 A G2 G | (A2 G A2) E | D2 E (E2 E) | (E2 =G) F2 F | F3 A2 G | (E2 D E2) D | (C2 D C2) D | %37
w: pur- ple or in|pall, * * But|all in fair *|lin\- * en As|* ba- bies|all. * * No-|el * * No-|
 C3- C2 z || A | B2 A A2 E | (E2 D) E2 E | D2 E F2 E | (E2 F E2) A | (B2 A) A2 E | (E2 D E2) E | %45
w: el. *||||||||
 D2 E (F2 E) | (C2 D E2) E | E2 E ^D2 D | (E2 F) G2 B | A2 A G2 G | (A2 G A2) E | D2 E E2 E | %52
w: |* * * He|nei- ther shall be|rock\- * ed In|sil- ver nor in|gold, * * But|in a wood- en|
 (E2 =G) F2 F | F2- F A2 G | (E2 D E2) D | (C2 D C2) D | C3- C2 z || A | B2 A A2 E | (E2 D) E2 E | %60
w: cra\- * dle That|rocks * on the|mould. * * No-|el * * No-|el. *||||
 D2 E F2 E | (E2 F E2) A | (B2 A) A2 E | (E2 D E2) E | D2 E (F2 E) | (C2 D E2) E | E2 E ^D2 D | %67
w: |||||* * * He|nei- ther shall be|
 E2 F G2 B | A2 A G2 G | (A2 G A2) E | D2 E E2 E | (E2 =G) F2 F | F2 F A2 G | (E2 D E2) D | %74
w: chris- ten- ed In|white wine nor in|red, * * But|in the fair spring|wa\- * ter As|we were chris- ten-|ed. * * No-|
 (C2 D C2) D | C3- C2 |] %76
w: el * * No-|el. *|
V:3
 E | E2 E D2 D | (C2 D) C2 A, | A,2 A, DCB, | (C2 D C2) E | E3 D2 D | (C2 D C2) A, | %7
 A,2 A, (DCB,) | (A,2 B, C2) A, | B,2 B, B,2 B, | B,3- B,2 E | E2 D E2 E | (E2 D C2) A, | %13
 A,2 B, A,2 G, | A,2 C B,2 ^A, | B,2 C E2 D | (C2 D C2) A, | (A,2 F, E,2) D, | E,3- E,2 z || E | %20
 E2 E D2 D | (C2 D) C2 A, | A,2 A, DCB, | (C2 D C2) E | E3 D2 D | (C2 D C2) A, | A,2 A, (DCB,) | %27
 (A,2 B, C2) A, | B,2 B, B,2 B, | B,3 B,2 E | E2 D E2 E | (E2 D C2) A, | A,2 B, (A,2 G,) | %33
 (A,2 C) B,2 ^A, | (B,2 C) E2 D | (C2 D C2) A, | (A,2 F, E,2) D, | E,3- E,2 z || E | E2 E D2 D | %40
 (C2 D) C2 A, | A,2 A, DCB, | (C2 D C2) E | E3 D2 D | (C2 D C2) A, | A,2 A, (DCB,) | %46
 (A,2 B, C2) A, | B,2 B, B,2 B, | B,3 B,2 E | E2 D E2 E | (E2 D C2) A, | A,2 B, A,2 G, | %52
 (A,2 C) B,2 ^A, | (B,2 C) E2 D | (C2 D C2) A, | (A,2 F, E,2) D, | E,3- E,2 z || E | E2 E D2 D | %59
 (C2 D) C2 A, | A,2 A, DCB, | (C2 D C2) E | E3 D2 D | (C2 D C2) A, | A,2 A, (DCB,) | %65
 (A,2 B, C2) A, | B,2 B, B,2 B, | B,2 B, B,2 E | E2 D E2 E | (E2 D C2) A, | A,2 B, A,2 G, | %71
 (A,2 C) B,2 ^A, | B,2 C E2 D | (C2 D C2) A, | (A,2 F, E,2) D, | E,3- E,2 |] %76
V:4
 A, | G,2 A, F,2 G, | A,3 A,,2 C, | D,2 C, B,,2 E, | A,,3- A,,2 A, | (G,2 A,) F,2 G, | %6
 A,3 (A,,2 C,) | D,2 C, (B,,2 E,) | A,,3- A,,2 A, | G,2 G, F,2 B,, | E,3- E,2 G, | A,2 F, E,2 D | %12
 (C2 B, A,2) C, | D,2 D, C,2 B,, | A,,2 ^A,, B,,2 C, | D,2 F, E,2 E, | A,3- A,2 D, | %17
 A,,3- A,,2 D, | A,,3- A,,2 z || A, | G,2 A, F,2 G, | A,3 A,,2 C, | D,2 C, B,,2 E, | %23
 A,,3- A,,2 A, | (G,2 A,) F,2 G, | A,3 (A,,2 C,) | D,2 C, (B,,2 E,) | A,,3- A,,2 A, | %28
 G,2 G, F,2 B,, | E,3 E,2 G, | A,2 F, E,2 D | (C2 B, A,2) C, | D,2 D, (C,2 B,,) | %33
 (A,,2 ^A,,) B,,2 C, | (D,2 F,) E,2 E, | A,3- A,2 D, | A,,3- A,,2 D, | A,,3- A,,2 z || A, | %39
 G,2 A, F,2 G, | A,3 A,,2 C, | D,2 C, B,,2 E, | A,,3- A,,2 A, | (G,2 A,) F,2 G, | A,3 (A,,2 C,) | %45
 D,2 C, (B,,2 E,) | A,,3- A,,2 A, | G,2 G, F,2 B,, | E,3 E,2 G, | A,2 F, E,2 D | (C2 B, A,2) C, | %51
 D,2 D, C,2 B,, | (A,,2 ^A,,) B,,2 C, | (D,2 F,) E,2 E, | A,3- A,2 D, | A,,3- A,,2 D, | %56
 A,,3- A,,2 z || A, | G,2 A, F,2 G, | A,3 A,,2 C, | D,2 C, B,,2 E, | A,,3- A,,2 A, | %62
 (G,2 A,) F,2 G, | A,3 (A,,2 C,) | D,2 C, (B,,2 E,) | A,,3- A,,2 A, | G,2 G, F,2 B,, | %67
 E,2 E, E,2 G, | A,2 F, E,2 D | (C2 B, A,2) C, | D,2 D, C,2 B,, | (A,,2 ^A,,) B,,2 C, | %72
 D,2 F, E,2 E, | A,3- A,2 D, | A,,3- A,,2 D, | A,,3- A,,2 |] %76

